X: 6
T: The Barren Rocks Of Aden
R: polka
M: 2/4
L: 1/8
K: Dmaj
fg fe | df Ad | ce Bc | d/d/A de |fg {f/g/}fe | df Ad | ce Bc | d2 d :|aa/f/ df | eg B2 | gg/e/ ce | df A2 | aa/f/ df | eg B2 | gg/e/ cA | d2 d :|


Tune 3640	Setting 16648

